X:97
T:Royal Charlotte, The
M:6/8
L:1/8
B:Thompson's Compleat Collection of 200 Favourite Country Dances, vol. 2 (London, 1765)
Z:Transcribed and edited by Flynn Titford-Mock, 2007
Z:abc's:AK/Fiddler's Companion
K:A
c/d/ | ecA a2e | faf ecA | cea aec | BBB B2 c/d/ | ecA a2e | faf ecA | def ecA | EAA A2 :|
|: A | cAA eAA fAA eAA | cAA ecc | dBB B2B | cAA eAA | fAA faa | aee ecc | cA[EA] [A,2A2] :|

